public/logos/slate.svg

<svg xmlns="http://www.w3.org/2000/svg" width="427pt" height="131pt" viewBox="0 0 1300 401"><g fill="#2d0023"><path d="M145.22 0h7.34C191.8 1.45 230.6 12.23 265.2 30.74c-13.12 25.72-26.22 51.45-39.37 77.14-16.99-13.89-37.66-24.44-59.9-25.61-13.42-.67-27.97 2.12-38.02 11.66-9.32 8.41-11.83 23.62-5.27 34.39 5.15 7.41 13.18 12.22 21.27 15.85 11.94 5.48 24.84 8.28 37.26 12.44 17.47 5.44 34.63 12.32 50.17 22.07 12.64 7.93 24.21 17.95 32.53 30.43 12.78 18.97 17.27 42.35 16.9 64.92-.13 28.48-8.53 57.6-27.07 79.62-18.12 21.97-44.62 35.54-71.98 42.08-15.04 3.59-30.52 5.09-45.97 5.27h-7.26C82.58 400.21 37.43 384.65 0 358.21v-.11c14.11-26.53 28.22-53.06 42.34-79.58 18.9 16.65 40.81 30.97 65.72 36.45 13.94 2.96 28.77 3.55 42.54-.57 10.24-3.02 18.92-10.63 23.47-20.26 4.03-8.94 3.74-19.73-.53-28.52-5.17-9.63-15.28-15.13-24.93-19.39-21.49-9.13-44.12-15.17-65.78-23.84-14.41-5.42-27.98-13.36-39.21-23.94-9.59-9.25-17.03-20.69-21.81-33.11-6.52-18.31-7.11-38.21-5.28-57.39 3.11-31.06 18.1-61.34 42.9-80.69C83.64 8.3 114.82.15 145.22 0ZM324.45 390.44c-.03-126.63-.02-253.25 0-379.88 32.93.01 65.86-.01 98.8.01.01 98.72 0 197.45 0 296.17 44.52.02 89.05-.01 133.57.02v83.67c-77.46.02-154.92 0-232.37.01ZM604.45 85.57c-.19-25-.05-50.01-.07-75.01 22.34 0 44.68 0 67.02-.01 48.21 126.64 96.56 253.22 144.63 379.91-35.12-.04-70.24-.01-105.35-.02-9.8-27.87-19.37-55.83-29.26-83.66-25.68.08-51.37.03-77.05.03 0-25.05-.02-50.09.01-75.13 16.98.01 33.96.01 50.93 0-16.91-48.71-34.02-97.37-50.86-146.11ZM775.75 10.57c87.07-.01 174.13-.02 261.19 0 0 27.89.01 55.78 0 83.68-27.06.01-54.12 0-81.18 0-.03 98.74.03 197.47-.03 296.2-32.93-.03-65.86.01-98.79-.02-.02-98.72.01-197.45-.01-296.18-27.06 0-54.12.01-81.18 0-.01-27.9 0-55.79 0-83.68ZM1083.69 10.57c72.1-.02 144.21-.01 216.31-.01v83.69c-39.14 0-78.28.01-117.42 0-.03 21.12 0 42.24-.02 63.36 39.15.03 78.29 0 117.44.01v83.69c-39.15.01-78.29-.02-117.44.02.01 21.8.01 43.6 0 65.4 39.14.05 78.29 0 117.44.02v83.69c-72.1 0-144.21.01-216.31-.01-.01-126.62-.01-253.24 0-379.86Z"/></g></svg>

<?xml version="1.0" encoding="UTF-8" ?>
<!DOCTYPE svg PUBLIC "-//W3C//DTD SVG 1.1//EN" "http://www.w3.org/Graphics/SVG/1.1/DTD/svg11.dtd">
<svg width="427pt" height="131pt" viewBox="0 0 1300 401" version="1.1" xmlns="http://www.w3.org/2000/svg">
  <g fill="#2d0023">
    <path d="M 145.22 0.00 L 152.56 0.00 C 191.80 1.45 230.60 12.23 265.20 30.74 C 252.08 56.46 238.98 82.19 225.83 107.88 C 208.84 93.99 188.17 83.44 165.93 82.27 C 152.51 81.60 137.96 84.39 127.91 93.93 C 118.59 102.34 116.08 117.55 122.64 128.32 C 127.79 135.73 135.82 140.54 143.91 144.17 C 155.85 149.65 168.75 152.45 181.17 156.61 C 198.64 162.05 215.80 168.93 231.34 178.68 C 243.98 186.61 255.55 196.63 263.87 209.11 C 276.65 228.08 281.14 251.46 280.77 274.03 C 280.64 302.51 272.24 331.63 253.70 353.65 C 235.58 375.62 209.08 389.19 181.72 395.73 C 166.68 399.32 151.20 400.82 135.75 401.00 L 128.49 401.00 C 82.58 400.21 37.43 384.65 0.00 358.21 L 0.00 358.10 C 14.11 331.57 28.22 305.04 42.34 278.52 C 61.24 295.17 83.15 309.49 108.06 314.97 C 122.00 317.93 136.83 318.52 150.60 314.40 C 160.84 311.38 169.52 303.77 174.07 294.14 C 178.10 285.20 177.81 274.41 173.54 265.62 C 168.37 255.99 158.26 250.49 148.61 246.23 C 127.12 237.10 104.49 231.06 82.83 222.39 C 68.42 216.97 54.85 209.03 43.62 198.45 C 34.03 189.20 26.59 177.76 21.81 165.34 C 15.29 147.03 14.70 127.13 16.53 107.95 C 19.64 76.89 34.63 46.61 59.43 27.26 C 83.64 8.30 114.82 0.15 145.22 0.00 Z" />
    <path d="M 324.45 390.44 C 324.42 263.81 324.43 137.19 324.45 10.56 C 357.38 10.57 390.31 10.55 423.25 10.57 C 423.26 109.29 423.25 208.02 423.25 306.74 C 467.77 306.76 512.30 306.73 556.82 306.76 C 556.82 334.65 556.82 362.54 556.82 390.43 C 479.36 390.45 401.90 390.43 324.45 390.44 Z" />
    <path d="M 604.45 85.57 C 604.26 60.57 604.40 35.56 604.38 10.56 C 626.72 10.56 649.06 10.56 671.40 10.55 C 719.61 137.19 767.96 263.77 816.03 390.46 C 780.91 390.42 745.79 390.45 710.68 390.44 C 700.88 362.57 691.31 334.61 681.42 306.78 C 655.74 306.86 630.05 306.81 604.37 306.81 C 604.37 281.76 604.35 256.72 604.38 231.68 C 621.36 231.69 638.34 231.69 655.31 231.68 C 638.40 182.97 621.29 134.31 604.45 85.57 Z" />
    <path d="M 775.75 10.57 C 862.82 10.56 949.88 10.55 1036.94 10.57 C 1036.94 38.46 1036.95 66.35 1036.94 94.25 C 1009.88 94.26 982.82 94.25 955.76 94.25 C 955.73 192.99 955.79 291.72 955.73 390.45 C 922.80 390.42 889.87 390.46 856.94 390.43 C 856.92 291.71 856.95 192.98 856.93 94.25 C 829.87 94.25 802.81 94.26 775.75 94.25 C 775.74 66.35 775.75 38.46 775.75 10.57 Z" />
    <path d="M 1083.69 10.57 C 1155.79 10.55 1227.90 10.56 1300.00 10.56 L 1300.00 94.25 C 1260.86 94.25 1221.72 94.26 1182.58 94.25 C 1182.55 115.37 1182.58 136.49 1182.56 157.61 C 1221.71 157.64 1260.85 157.61 1300.00 157.62 L 1300.00 241.31 C 1260.85 241.32 1221.71 241.29 1182.56 241.33 C 1182.57 263.13 1182.57 284.93 1182.56 306.73 C 1221.70 306.78 1260.85 306.73 1300.00 306.75 L 1300.00 390.44 C 1227.90 390.44 1155.79 390.45 1083.69 390.43 C 1083.68 263.81 1083.68 137.19 1083.69 10.57 Z" />
  </g>
</svg>
